X: 030419
T: Consolation (The)
C: J.O'Sullivan
Z: B.Black
M: 6/8
L: 1/8
R: jig
K: D dor
A3 ABc | A3 GED | A3 ABc | d3 cAG |
A3 ABc | A3 GED | A3 ABc |1 d3 cAG :|2 d3 d2 e ||
f2 d cAG | A3 GED | f2 d cAc | d3 d2 d |
f2 d cAG | A3 GED | A3 ABc |1 d3 d2 e :|2 d3 - d3 ||
